app/assets/images/heroicons/outline/clipboard-document.svg

<svg width="24" height="24" viewBox="0 0 24 24" fill="none" xmlns="http://www.w3.org/2000/svg">
<path d="M8.25 7.5V6.10822C8.25 4.97324 9.09499 4.01015 10.2261 3.91627C10.5994 3.88529 10.9739 3.85858 11.3495 3.83619M15.75 18H18C19.2426 18 20.25 16.9926 20.25 15.75V6.10822C20.25 4.97324 19.405 4.01015 18.2739 3.91627C17.9006 3.88529 17.5261 3.85858 17.1505 3.83619M15.75 18.75V16.875C15.75 15.011 14.239 13.5 12.375 13.5H10.875C10.2537 13.5 9.75 12.9963 9.75 12.375V10.875C9.75 9.01104 8.23896 7.5 6.375 7.5H5.25M17.1505 3.83619C16.8672 2.91757 16.0116 2.25 15 2.25H13.5C12.4884 2.25 11.6328 2.91757 11.3495 3.83619M17.1505 3.83619C17.2152 4.04602 17.25 4.26894 17.25 4.5V5.25H11.25V4.5C11.25 4.26894 11.2848 4.04602 11.3495 3.83619M6.75 7.5H4.875C4.25368 7.5 3.75 8.00368 3.75 8.625V20.625C3.75 21.2463 4.25368 21.75 4.875 21.75H14.625C15.2463 21.75 15.75 21.2463 15.75 20.625V16.5C15.75 11.5294 11.7206 7.5 6.75 7.5Z" stroke="#0F172A" stroke-width="1.5" stroke-linecap="round" stroke-linejoin="round"/>
</svg>

<svg xmlns="http://www.w3.org/2000/svg" fill="none" viewBox="0 0 24 24" stroke-width="1.5" stroke="currentColor" aria-hidden="true" data-slot="icon">
  <path stroke-linecap="round" stroke-linejoin="round" d="M8.25 7.5V6.108c0-1.135.845-2.098 1.976-2.192.373-.03.748-.057 1.123-.08M15.75 18H18a2.25 2.25 0 0 0 2.25-2.25V6.108c0-1.135-.845-2.098-1.976-2.192a48.424 48.424 0 0 0-1.123-.08M15.75 18.75v-1.875a3.375 3.375 0 0 0-3.375-3.375h-1.5a1.125 1.125 0 0 1-1.125-1.125v-1.5A3.375 3.375 0 0 0 6.375 7.5H5.25m11.9-3.664A2.251 2.251 0 0 0 15 2.25h-1.5a2.251 2.251 0 0 0-2.15 1.586m5.8 0c.065.21.1.433.1.664v.75h-6V4.5c0-.231.035-.454.1-.664M6.75 7.5H4.875c-.621 0-1.125.504-1.125 1.125v12c0 .621.504 1.125 1.125 1.125h9.75c.621 0 1.125-.504 1.125-1.125V16.5a9 9 0 0 0-9-9Z"/>
</svg>
